X: 40437
T: Tom Moran's Fancy
R: reel
M: 4/4
K: Edorian
B3|:e3 f ed B2|efed B G3|AB HD4 EF|G3 BG (3ABA G3|1 E>D HE4 dcd:|2 E>D HE4 EF||
HG2 EF G2 AB/c/|d2 e (3dBG A2 -|A6 GA|HB2 (3efe d3 e|fd He2 g3 a|
gf e3 fe>Hd|efed B G3|AB HD4 EF|G3 BG (3ABA G3|E>D HE4||

